X 1
T: Worcester Farewell. JJ.131
T: Last Valentine's Day,aka. JJ.131
S:J.Jones MS,1801,N.Shrops.
N:cf. "Last Valentine's Day" in "A Sussex Tune Book" (edit. Anne Loughran
N:and Vic Gammon (EFDSS,1982).
A:N Shropshire
Z:Neil Brookes 2006
M:2/4
L:1/8
Q:1/4=120
K:C
g/f/|eadg|cdce|fa/g/ f/e/d/c/|B/c/d/B/ Gg/f/|!
eadg|c>def|afdB|c2c::!
g|c'>c'c'd'|b>bbc'|aa c'/a/c'/a/|agge|!
ff a/f/a/f/|ee g/e/g/e/|afdB|c2c:|
